src/images/sprite.svg

<svg aria-hidden="true" style="position: absolute; width: 0; height: 0; overflow: hidden;" version="1.1" xmlns="http://www.w3.org/2000/svg" xmlns:xlink="http://www.w3.org/1999/xlink">
<defs>
<symbol id="icon-user" viewBox="0 0 32 32">
<path  d="M16 20c-4.227 0-7.987 2.040-10.379 5.208-0.515 0.681-0.773 1.023-0.764 1.483 0.007 0.356 0.229 0.805 0.509 1.025 0.363 0.284 0.865 0.284 1.869 0.284h17.528c1.004 0 1.507 0 1.869-0.284 0.28-0.22 0.503-0.669 0.509-1.025 0.008-0.46-0.249-0.8-0.764-1.483-2.393-3.167-6.152-5.208-10.379-5.208zM16 16c3.314 0 6-2.686 6-6s-2.686-6-6-6v0c-3.314 0-6 2.686-6 6s2.686 6 6 6v0z"></path>
</symbol>
<symbol id="icon-password" viewBox="0 0 32 32">
<path  d="M24 10.667h-1.333v-2.667c0-3.68-2.987-6.667-6.667-6.667s-6.667 2.987-6.667 6.667v2.667h-1.333c-1.467 0-2.667 1.2-2.667 2.667v13.333c0 1.467 1.2 2.667 2.667 2.667h16c1.467 0 2.667-1.2 2.667-2.667v-13.333c0-1.467-1.2-2.667-2.667-2.667zM16 22.667c-1.467 0-2.667-1.2-2.667-2.667s1.2-2.667 2.667-2.667 2.667 1.2 2.667 2.667-1.2 2.667-2.667 2.667zM20.133 10.667h-8.267v-2.667c0-2.28 1.853-4.133 4.133-4.133s4.133 1.853 4.133 4.133v2.667z"></path>
</symbol>
<symbol id="icon-email" viewBox="0 0 32 32">
<path  d="M26.667 5.333h-21.333c-1.467 0-2.653 1.2-2.653 2.667l-0.013 16c0 1.467 1.2 2.667 2.667 2.667h21.333c1.467 0 2.667-1.2 2.667-2.667v-16c0-1.467-1.2-2.667-2.667-2.667zM26.667 10.667l-10.667 6.667-10.667-6.667v-2.667l10.667 6.667 10.667-6.667v2.667z"></path>
</symbol>
</defs>
</svg>

<svg xmlns="http://www.w3.org/2000/svg" aria-hidden="true" style="position:absolute;width:0;height:0;overflow:hidden"><defs><symbol id="icon-user" viewBox="0 0 32 32"><path d="M16 20c-4.227 0-7.987 2.04-10.379 5.208-.515.681-.773 1.023-.764 1.483.007.356.229.805.509 1.025.363.284.865.284 1.869.284h17.528c1.004 0 1.507 0 1.869-.284.28-.22.503-.669.509-1.025.008-.46-.249-.8-.764-1.483C23.984 22.041 20.225 20 15.998 20zm0-4a6 6 0 1 0 0-12 6 6 0 1 0 0 12z"/></symbol><symbol id="icon-password" viewBox="0 0 32 32"><path d="M24 10.667h-1.333V8c0-3.68-2.987-6.667-6.667-6.667S9.333 4.32 9.333 8v2.667H8a2.675 2.675 0 0 0-2.667 2.667v13.333c0 1.467 1.2 2.667 2.667 2.667h16c1.467 0 2.667-1.2 2.667-2.667V13.334c0-1.467-1.2-2.667-2.667-2.667zm-8 12c-1.467 0-2.667-1.2-2.667-2.667s1.2-2.667 2.667-2.667 2.667 1.2 2.667 2.667-1.2 2.667-2.667 2.667zm4.133-12h-8.267V8c0-2.28 1.853-4.133 4.133-4.133S20.132 5.72 20.132 8v2.667z"/></symbol><symbol id="icon-email" viewBox="0 0 32 32"><path d="M26.667 5.333H5.334A2.663 2.663 0 0 0 2.681 8l-.013 16c0 1.467 1.2 2.667 2.667 2.667h21.333c1.467 0 2.667-1.2 2.667-2.667V8c0-1.467-1.2-2.667-2.667-2.667zm0 5.334L16 17.334 5.333 10.667V8L16 14.667 26.667 8v2.667z"/></symbol><symbol id="icon-logo" viewBox="0 0 33 32"><path fill="#ffc727" d="M22.441 4.308c-2.219-.554-4.438-1.664-6.102-3.328-1.665 1.664-3.883 2.774-6.102 3.328.554 4.993 2.219 8.321 6.102 11.095 3.883-2.774 6.102-6.102 6.102-11.095z" style="fill:var(--color1, #ffc727)"/><path fill="#fbfbfb" d="M20.222 24.962 4.69 6.656v8.876L16.893 29.4l3.329-4.438zm1.664-1.664 6.657-7.766v-8.32l-10.54 12.203 3.883 3.884zm.555 2.775v4.993l6.102-7.212v-4.992l-6.102 7.212zm-11.651 0-6.102-7.212v4.993l6.102 7.212v-4.993z" style="fill:var(--color2, #fbfbfb)"/></symbol><symbol id="icon-user" viewBox="0 0 32 32"><path d="M16 20c-4.227 0-7.987 2.04-10.379 5.208-.515.681-.773 1.023-.764 1.483.007.356.229.805.509 1.025.363.284.865.284 1.869.284h17.528c1.004 0 1.507 0 1.869-.284.28-.22.503-.669.509-1.025.008-.46-.249-.8-.764-1.483C23.984 22.041 20.225 20 15.998 20zm0-4a6 6 0 1 0 0-12 6 6 0 1 0 0 12z"/></symbol><symbol id="icon-email" viewBox="0 0 32 32"><path d="M26.667 5.333H5.334A2.663 2.663 0 0 0 2.681 8l-.013 16c0 1.467 1.2 2.667 2.667 2.667h21.333c1.467 0 2.667-1.2 2.667-2.667V8c0-1.467-1.2-2.667-2.667-2.667zm0 5.334L16 17.334 5.333 10.667V8L16 14.667 26.667 8v2.667z"/></symbol></defs></svg>
